!!!!SEGMENT: pl-wtm--r-1461--006_stefani-jozef--wszechstronne-cwiczenia-glosowe-tercje-z-portamento.krn
!!!cenid: 18xx:2183
!!!COM: Stefani, Józef
!!!COM-rismid: pe30024097
!!!CDT: 1800/04/16-1876/03/19
!!!CNT: Polish
!!!GTL: Wszechstronne ćwiczenia głosowe
!!!OTL: Tercje z portamento
!!!PDT:
!!!AGN: Secular
!!!SMS-siglum: PL-Wtm
!!!SMS-shelfmark: R 1461
!!!SMS-shelfwork: 006 G
!!!SMS-variant:
!!!SMS-altvar:
!!!NIFC-rismid: 1001120710
!!!system-decoration: s1{(s2,s3)}
!!!AIN: 1 empty 1 tenor
!!!key:
**kern	**kern	**kern	**text	**dynam
*part2	*part2	*part1	*part1	*part1
*staff3	*staff2	*staff1	*staff1	*
*Iempty	*Iforte	*Itenor	*	*
*	*I"Fortepian	*I"Sopran/Tenor	*	*
*	*I'pf	*I'S	*	*
*clefF4	*clefG2	*clefG2	*	*
*k[]	*k[]	*k[]	*	*
*C:	*C:	*C:	*	*
*M4/4	*M4/4	*M4/4	*	*
*met(c)	*met(c)	*met(c)	*	*
=1	=1	=1	=1	=1
*2\right	*2\right	*2\right	*	*
!	!	!LO:TX:a:Bi:t=Tercje z portamento.	!	!
2C\	4r	(<2c/	do	<
.	4c 4G< 4E</	.	.	.
.	.	16qqe/	.	.
2AA\	2e 2c/	4e/)	mi	[[
.	.	4r	.	.
=2	=2	=2	=2	=2
2FF/	4r	(<2d/	re	<
.	4d 4c/	.	.	.
.	.	16qqf/	.	.
2GG/	2f 2d 2B/	4f/)	fa	[[
.	.	4r	.	.
=3	=3	=3	=3	=3
2C/	4r	(<2e/	mi	<
.	4e 4c/	.	.	.
.	.	16qqg/	.	.
2BB-X/	2g 2e 2c/	4g/)	sol	[[
.	.	4r	.	.
=4	=4	=4	=4	=4
2AA/	4r	(<2f/	fa	<
.	4f 4c/	.	.	.
.	.	16qqa/	.	.
2F\	2a 2f 2c/	4a/)	la	[[
.	.	4r	.	.
=5	=5	=5	=5	=5
2E\	4r	(<2g/	sol	<
.	4g 4c/	.	.	.
.	.	16qqb/	.	.
2D\	2b 2g/	4b/)	si	[[
.	.	4r	.	.
!!LO:LB:g=original
=6	=6	=6	=6	=6
!	!	!	!	!LO:HP:b
2C/	4r	(>2a\	la	<
.	4a 4e/	.	.	.
.	.	16qqcc/)	.	[
2D\	2cc 2a 2f#X/	4cc\	do	.
.	.	4r	.	.
=7	=7	=7	=7	=7
!	!	!	!	!LO:HP:b
2G\	4r	(>2b\	si	<
.	4b 4g/	.	.	.
.	.	16qqdd/)	.	[
2GG/	2dd 2b 2g 2f/	4dd\	re	.
.	.	4r	.	.
=8	=8	=8	=8	=8
!	!	!	!	!LO:HP:b
2C/	4r	(>2cc\	do	<
.	4cc 4g 4e/	.	.	.
.	.	16qqee/)	.	[
2c\	2ee 2cc\	4ee\	mi	.
.	.	4r	.	.
=9	=9	=9	=9	=9
!	!	!	!	!LO:HP:b
2B\	4r	(>2dd\	re	<
.	4dd 4g\	.	.	.
.	.	16qqff/)	.	[
2A\	2ff 2cc 2f\	4ff\	fa	.
.	.	4r	.	.
=10	=10	=10	=10	=10
!	!	!	!	!LO:HP:b
2G\	4r	(>2ee\	mi	<
.	4ee 4cc 4g\	.	.	.
.	.	16qqgg/)	.	[
2E\	2gg 2cc 2b-X\	4gg\	sol	.
.	.	4r	.	.
!!LO:LB:g=original
=11	=11	=11	=11	=11
*^	*	*	*	*
!	!	!	!	!	!LO:HP:b
2F/	2F\	4r	(>2ff\	fa	<
.	.	4ff 4cc 4a\	.	.	.
.	.	.	16qqaa/)	.	[
2F 2FF/	2ryy	2aa 2ff 2cc\	4aa\	la	.
.	.	.	4r	.	.
*v	*v	*	*	*	*
=12||	=12||	=12||	=12||	=12||
!	!	!	!	!LO:HP:b
2F 2FF/	4r	(>2aa\	la	>
.	4aa 4ff 4cc\	.	.	.
.	.	16qqff/)	.	.
2A 2AA\	2ff 2cc 2f\	4ff\	fa	.
.	.	4r	.	]
=13	=13	=13	=13	=13
!	!	!	!	!LO:HP:b
2E 2EE/	4r	(>2gg\	sol	>
.	4gg 4cc 4g\	.	.	.
.	.	16qqee/)	.	.
2C/	2ee 2cc 2g\	4ee\	mi	.
.	.	4r	.	]
=14	=14	=14	=14	=14
!	!	!	!	!LO:HP:b
2AA/	4r	(>2ff\	fa	>
.	4ff 4cc 4f\	.	.	.
.	.	16qqdd/)	.	.
2BB/	2dd 2g\	4dd\	re	.
.	.	4r	.	]
=15	=15	=15	=15	=15
!	!	!	!	!LO:HP:b
2GG/	4r	(>2ee\	mi	>
.	4ee 4b 4e\	.	.	.
.	.	16qqcc/	.	.
2AA/	2cc 2e/	4cc\)	do	.
.	.	4r	.	]
!!LO:LB:g=original
=16	=16	=16	=16	=16
!	!	!	!	!LO:HP:b
2FF/	4r	(>2dd\	re	>
.	4dd 4a 4d/	.	.	.
.	.	16qqb/	.	.
2GG/	2b 2f 2d/	4b\)	si	.
.	.	4r	.	]
=17	=17	=17	=17	=17
!	!	!	!	!LO:HP:b
2AA/	4r	(>2cc\	do	>
.	4cc 4e 4c/	.	.	.
.	.	16qqa/	.	.
2D\	2a 2f#X 2d/	4a/)	la	.
.	.	4r	.	]
=18	=18	=18	=18	=18
!	!	!	!	!LO:HP:b
2GG/	4r	(>2b/	si	>
.	4b 4g 4d/	.	.	.
.	.	16qqg/	.	.
2BB/	2g 2d/	4g/)	sol	.
.	.	4r	.	]
=19	=19	=19	=19	=19
!	!	!	!	!LO:HP:b
2C#X\	4r	(>2a/	la	>
.	4a 4e 4A/	.	.	.
.	.	16qqf/	.	.
2D\	2f 2d 2A/	4f/)	fa	.
.	.	4r	.	]
=20	=20	=20	=20	=20
!	!	!	!	!LO:HP:b
2BB\	4r	(>2g/	sol	>
.	4g 4d 4G/	.	.	.
.	.	16qqe/	.	.
2Cn\	2e 2c 2G/	4e/)	mi	.
.	.	4r	.	]
=21	=21	=21	=21	=21
!	!	!	!	!LO:HP:b
2AA\	4r	(>2f/	fa	>
.	4f 4c 4F/	.	.	.
.	.	16qqd/	.	.
2BB\	2d 2G/	4d/)	re	.
.	.	4r	.	]
!!LO:PB:g=original
=22	=22	=22	=22	=22
!	!	!	!	!LO:HP:b
2GG#X\	4r	(>2e/	mi	>
.	4e 4B 4E/	.	.	.
.	.	16qqc/	.	]
2AA\	2c 2A 2E/	4c/)	do	.
.	.	4r	.	.
=23	=23	=23	=23	=23
*	*^	*	*	*
!	!	!	!	!	!LO:HP:b
2FF\	2c 2A/	1d	(>1d	re-	<
!	!	!	!	!	!LO:HP:b
2GG\	2B 2G/	.	.	.	[ >
*	*v	*v	*	*	*
.	.	16qqc/)	.	.
=24	=24	=24	=24	=24
2.C 2.CC\	2.c 2.G 2.E/	4c/	-do.	]
.	.	4r	.	.
.	.	2r	.	.
4r	4r	.	.	.
==	==	==	==	==
*-	*-	*-	*-	*-
!!title: @{OTL};
!!!RDF**kern: > = above
!!!RDF**kern: < = below
!!!RDF**kern: | = vertical stroke
!!!RDF**kern: N = linked
!!!RDF**kern: i = editorial accidental
!!!EED: Wojciech Jakubiak-Danek
!!!EEV: 2021-06-03
!!!URL-scan: http://repozytorium.nifc.pl/skany/pl-wtm-nut--r1461
!!!ONB-nifc: UWAGA: skan 0006, s. 8-9
!!!ENC: Tomasz Grochalski
!!!END: 2021-05-16
